X: 42469
T: Wet Weather, The
R: reel
M: 4/4
K: Dmajor
A|defd cABc|dgeg fage|dfed cABc|dfec d3:|
A/G/|F2FG AFFD|dBBG AFFD|F2FG ABcd|ecAc d3:|

